!!!SOCIAL_FUNCTION:	dream songs
!!!PDT:	1913
!!!OTL: No_133_Dream_Song.krn
!!!REG: Great_Lakes
!!!LANG: Non-Tone
!!!LING_GROUP: Algonquin
**kern	**kern
*staff2	*staff1
=1-	=1-
*clefF4	*clefG2
*k[f#c#g#d#a#]	*k[f#c#g#d#a#]
*M3/4	*M3/4
12GG#^/	4.f#/
12r	.
12GG#/	.
12GG#^/	.
12r	.
.	8g#/
12GG#/	.
12GG#^/	8f#/L
12r	.
.	8d#/J
12GG#/	.
=2||	=2||
*M2/4	*M2/4
2r	4f#/
.	16d#/LK
.	[8.d#/J
=3	=3
2r	2d#/]
=4||	=4||
*M3/4	*M3/4
2.r	16d#/LK
.	8.d#/J
.	4d#/
.	8d#/L
.	8f#/J
=5||	=5||
*M2/4	*M2/4
2r	8f#/L
.	8d#/J
.	8f#/L
.	8d#/J
=6	=6
2r	8f#/L
.	8B/J
.	4B/
*	*clefF4
=7	=7
2r	8G#\L
.	8B\J
.	4B\
=8	=8
2r	8G#\L
.	8B\J
.	8B\L
.	8G#\J
=9	=9
2r	8F#\L
.	8F#\J
.	[4F#\
=10	=10
2r	2F#\]
=11	=11
2r	4B\
.	8.B\L
.	16G#\Jk
=12	=12
2r	4F#\
.	8F#\L
.	8G#\J
=13||	=13||
*M3/4	*M3/4
2.r	4F#\
.	8D#\L
.	8D#\J
.	8D#\L
.	8D#\J
=14||	=14||
*M2/4	*M2/4
2r	2D#\
*	*clefG2
=15||	=15||
2r	8d#/L
.	8d#/J
.	4d#/
=16	=16
2r	8d#/L
.	8f#/J
.	8f#/L
.	8d#/J
=17||	=17||
*M3/4	*M3/4
2.r	8f#/L
.	8d#/J
.	8f#/L
.	8B/J
.	4B/
*	*clefF4
=18||	=18||
*M2/4	*clefF4
*	*M2/4
2r	8G#\L
.	8B\J
.	4B\
=19	=19
2r	8G#\L
.	8B\J
.	8B\L
.	8G#\J
=20	=20
2r	8F#\L
.	8F#\J
.	[4F#\
=21	=21
2r	2F#\]
=22	=22
2r	4B\
.	8.B\L
.	16G#\Jk
=23	=23
2r	4F#\
.	8F#\L
.	8G#\J
=24||	=24||
*M3/4	*M3/4
2.r	4F#\
.	8D#\L
.	8D#\J
.	8D#\L
.	8D#\J
=25||	=25||
*M2/4	*M2/4
2r	2D#\
==	==
*-	*-
